X: 13495
T: Flowers Of Brooklyn, The
R: reel
M: 4/4
K: Gmajor
|:B2 AB GEE2|cAAG FAdc|Bgg2 edcB|AFF2 dBcA|
B2 AB GEE2|cAAG FAdc|Bgg2 ecAF|AGFA G2 dc:|
|:dgg2 agfg|eaa2 baa2|g3e dGBd|cAAG FAdc|
dgg2 agfg|eaa2 b2 z a|gbag fdBd|cAFA GABc|
dgg2 agfg|eaa2 baa2|g3e dGBd|cAAG FAdc|
B2 AB GEE2|cAAG FAdc|Bgg2 ecAF|AGFA G2 dc||

